X: 41629
T: Up The Bow
R: jig
M: 6/8
K: Amajor
|:A,CE DFA|EAc ecA|dcd efg|aec BAF|
A,CE DFA|EAc ecA|dcd efg|aec A2A:|
|:Ace Ace|Adf afd|Ace Ace|B=GB dcB|
Ace Ace|fdf afd|egb efg|aec A2A:|

